!!!!SEGMENT:42Kobu_c.krn
!!!OTL: こぶ
!!!OPR:Eiga Banso Kyokusyu,jidai-geki,kouhen
!!!YOY:1928
!!!ONB:N/A
**kern
*clefG2
*C:
*M2/4
=1
8aL
16bL
16aJJ
8eL
8f#J
=2
4e
4r
=3
8aL
16bL
16aJJ
8eL
8f#J
=4
4e
8eL
8cJ
=5
8eL
8f#
8g
8f#J
=6
8f#L
8cJ
8eL
16f#L
16f#JJ
=7
8eL
8cJ
4B
=8
4r
8f#L
8f#J
=9
8f#L
8f#
8f#
8f#J
=10
8eL
16f#L
16f#JJ
8eL
8cJ
=11
4B
4r
=12
8eeL
16eeL
16eeJJ
8eL
8aJ
=13
8bL
16bL
16bJJ
8aL
8bJ
=14
8ccL
8b
8a
8f#XJ
=15
4e
8eL
8cJ
=16
8eL
8f#
8g
8f#J
=17
8f#L
8cJ
8eL
16f#L
16f#JJ
=18
8eL
8cJ
4B
=19
4r
8f#L
8f#J
=20
8f#L
8f#
8f#
8f#J
=21
8eL
16f#L
16f#JJ
8eL
8cJ
=22
4B
4r
==
*-
!!!ENC: Yukiko Yoden
!!!END: 2023/06/11
